Adwaita++/actions/22/transform-shear-left.svg

<svg height="22" viewBox="0 0 22 22" width="22" xmlns="http://www.w3.org/2000/svg">
  <path d="m1 1v9h2.8652344l-1.1113282-5h8.2460938v-4zm3 5 2 9h9l-2-9z" fill="#444" transform="translate(3 3)"/>
</svg>

<svg xmlns="http://www.w3.org/2000/svg" width="22" height="22" viewBox="0 0 22 22">
 <defs>
  <style id="current-color-scheme" type="text/css">
   .ColorScheme-Text { color:#444444; } .ColorScheme-Highlight { color:#4285f4; }
  </style>
 </defs>
 <path style="fill:currentColor" class="ColorScheme-Text" d="M 1 1 L 1 10 L 3.8652344 10 L 2.7539062 5 L 11 5 L 11 1 L 1 1 z M 4 6 L 6 15 L 15 15 L 13 6 L 4 6 z" transform="translate(3 3)"/>
</svg>
